dist/img/icons/arrow.svg

<svg width="18" height="10" viewBox="0 0 18 10" fill="none" xmlns="http://www.w3.org/2000/svg">
<path d="M5.00179 9.10745L5.10646 9.2094L5.21112 9.10745L5.35128 8.97092L5.46159 8.86347L5.35128 8.75602L1.74841 5.24656L17 5.24656H17.15V5.09656V4.90344V4.75344H17L1.74878 4.75344L5.35129 1.24398L5.46158 1.13653L5.35128 1.02909L5.21112 0.892552L5.10646 0.790595L5.00179 0.892553L0.895334 4.89275L0.785027 5.0002L0.895338 5.10764L5.00179 9.10745Z" fill="white" stroke="white" stroke-width="0.3"/>
</svg>

<svg width="18" height="10" fill="none" xmlns="http://www.w3.org/2000/svg"><path d="m5.002 9.107.104.102.105-.102.14-.136.11-.108-.11-.107-3.603-3.51H17.15v-.493H1.749L5.35 1.244l.11-.107-.11-.108-.14-.136L5.106.79l-.104.102-4.107 4L.785 5l.11.108 4.107 4Z" fill="#fff" stroke="#fff" stroke-width=".3"/></svg>
